svgs/:joplin:.svg

<svg width="24" height="24" viewBox="0 0 24 24" fill="none" xmlns="http://www.w3.org/2000/svg">
<path d="M5 0C3.67392 0 2.40215 0.526784 1.46447 1.46447C0.526784 2.40215 0 3.67392 0 5L0 19C0 19.6566 0.129329 20.3068 0.380602 20.9134C0.631876 21.52 1.00017 22.0712 1.46447 22.5355C2.40215 23.4732 3.67392 24 5 24H19C19.6566 24 20.3068 23.8707 20.9134 23.6194C21.52 23.3681 22.0712 22.9998 22.5355 22.5355C22.9998 22.0712 23.3681 21.52 23.6194 20.9134C23.8707 20.3068 24 19.6566 24 19V5C24 4.34339 23.8707 3.69321 23.6194 3.08658C23.3681 2.47995 22.9998 1.92876 22.5355 1.46447C22.0712 1.00017 21.52 0.631876 20.9134 0.380602C20.3068 0.129329 19.6566 0 19 0L5 0ZM12.01 2H19.59V4.61H17.73L17.65 17.26C17 19.38 16.25 20.24 14.54 21.41C13.61 21.84 13.07 22 12.06 22C10.66 22 9.92 21.9 8.72 21.31C7.57346 20.7479 6.56332 19.9425 5.76 18.95C5.13253 18.0046 4.67875 16.9548 4.42 15.85C4.32346 14.6979 4.52672 13.5403 5.01 12.49C5.61 11.63 6.05 11.19 7.01 10.51C8.01 10.06 8.6 9.87 9.73 9.66C10.4628 9.59422 11.2014 9.66198 11.91 9.86V13.69C11.3469 13.3615 10.7013 13.2019 10.05 13.23C9.21 13.55 8.83 13.78 8.35 14.27C8.05 14.98 8.03 15.37 8.35 16.09C8.81 16.87 9.15 17.27 9.95 17.88C10.7602 18.2002 11.6303 18.3401 12.5 18.29C12.8165 18.1425 13.1 17.9328 13.3336 17.6734C13.5673 17.4139 13.7463 17.1101 13.86 16.78V4.72L12.01 4.62V2Z" fill="black"/>
</svg>

<svg viewBox="0 0 24 24" width="24" height="24" data-reactroot=""><path fill-rule="evenodd" clip-rule="evenodd" d="M5 0a5 5 0 00-5 5v14a5 5 0 005 5h14a5 5 0 005-5V5a5 5 0 00-5-5H5zm7.01 2h7.58v2.61h-1.86l-.08 12.65c-.65 2.12-1.4 2.98-3.11 4.15-.93.43-1.47.59-2.48.59-1.4 0-2.14-.1-3.34-.69a8.78 8.78 0 01-2.96-2.36 9.54 9.54 0 01-1.34-3.1 6.7 6.7 0 01.59-3.36c.6-.86 1.04-1.3 2-1.98 1-.45 1.59-.64 2.72-.85a6.08 6.08 0 012.18.2v3.83a3.4 3.4 0 00-1.86-.46c-.84.32-1.22.55-1.7 1.04-.3.71-.32 1.1 0 1.82.46.78.8 1.18 1.6 1.79a6 6 0 002.55.41 2.6 2.6 0 001.36-1.51V4.72l-1.85-.1V2z"></path></svg>
